X:558
T:Polska från Transtrand efter Omas Ludvig
S:efter Omas Ludvig Larsson
S:Känd genom Hedningarna
O:Dalarna, Transtrand
R:Polska
D:Hedningarna
N:Jmf Smus.se: http://www.smus.se/earkiv/fmk/browselarge.php?lang=sw&katalogid=Dr+27&bildnr=00023
Z:Per Oldberg 2013-02
M:3/4
L:1/8
V:1
V:2
K:Ddor
V:1
A>a- a>_b a>g | (3efg- g>a g>e | (3^cde- e>f d>e | (3^cBc A4 |
V:2
D>f- f>g f>e | (3^cde- e>f e>c | (3AB^c- c>d A>c | (3AGA E4 | 
V:1
A>a- a>_b a>g | (3efg- g>a g>e | (3^cde- e>f d>e | (3^cBc d4 :|
V:2
D>f- f>g f>e | (3^cde- e>f e>c | (3AB^c- c>d A>c | (3AGE F4 :| 
V:1
|: (3A2^c2e2 d>B | (3G2B2d2 ^c2 | (3A2^c2e2 d>B | G>B B<A A>A | 
V:2
|: (3E2A2^c2 B>G | (3D2G2B2 A2 | (3E2A2^c2 B>G | D>G G<E E>D | 
V:1
(3A2^c2e2 d>B | (3G2B2d2 ^c2 | A>^c (3def d>e | (3^cBc d4 :|
V:2
(3E2A2^c2 B>G | (3D2G2B2 A2 | E>G (3A^cd A>c | (3AGE F4 :| 
(:musicend:)
(:music:)
